X:155
T:Prince’s Welcome to the Isle of Skye,The. RH.155
R:Air
S:Rev.R.Harrison’s MS,c1815,Cumbria
O:England
A:Temple Sowerby,Cumbria
Z:vmp.Simon Wilson. Review PJH, 2008.
M:C
L:1/8
Q:1/2=60
K:G
“Moderato”\
ge|d2G2cBAG|d2G2(cB)AG|e2A2 A>Bc>d|e2A2 A>Bc>d|!
edcB g2fe|(ed)(cB) (cB)(AG)|BAGE DEGA|B2G2 G2:|!
|:ga|b2gb a2fa|g2eg edcB|e2A2 ABcd|e2A2 ABcc’|!
bagb agfa|gedg (ed)(cB)|(cB)(AG) (DE)(GA)|B2G2G2:|!
|:d’c’|b2g2 (bc’)(d’c’)|b2g2 (bc’)(d’b)|c’2a2 abc’d’|e’2a2 a2d’c’|!
b2g2 bc’d’c’|b2g2 (bc’)(d’g)|(de)(ga) bd’ac’|b2g2g2:|!
|:c’2|bagb agea|gedg edcB|eAaA ABcd|eAaA ABcc’|!
bagb agea|gedg edcB|cBAG DEGA|B2G2G2:|

